X:1
T:Title
%%score { ( 1 4 ) | ( 2 3 ) }
L:1/8
Q:1/4=100
M:4/4
K:G
V:1 treble nm="Grand Piano"
V:4 treble 
V:2 treble 
V:3 treble 
V:1
 d3 B G2 A2 | B2 G2 [EG]2 E2 | D2 D2 [DG]2 [DB]2 | d3 B A2 z2 | [Fe]3 [Fc] A2 B2 | %5
w: C.~G.~Stanger * * *|||||
 c2 [Fd]2 [Ac]2 B2 | G2 [Bd]2 [Gd]3 [Ec] | [DB]2 [CA]2 [B,G]4 | D2 D2 E2 DE | %9
w: ||||
 F2 GA [CDA]2 [B,DG]2 | [DFA]2 [DFA]2 [DGB]2 [EGB]2 | [G^c]3 [Fd] [Fd]4 | d3 B G2 A2 | %13
w: ||||
 B2 e2 e2 d2 | BA[DG]D E2 [Ec]2 | [DB]3 [CA] [B,G]4 |] %16
w: |||
V:2
 [G,B,G]3 [G,DG] [G,B,]2 [G,CG]2 | [G,DG]2[K:bass] [G,B,D]2 [C,C]2 [C,G,C]2 | %2
 [D,F,A,]2 [C,F,A,]2 [B,,G,]2 [G,,G,]2 | [D,B,D]3 [D,G,D] [D,F,D]2 z2 | %4
 [D,C]3 [D,A,][K:treble] [CDF]2 [B,DF]2 | [A,EG]2[K:bass] [D,D]2 [F,D]2 [G,DG]2 | %6
 [B,,G,]2 [G,,G,]2 [B,,G,]3 [C,G,] | [D,G,]2 [D,F,]2 [G,,G,]4 | %8
 [D,F,C]2 [D,F,C]2 [D,G,C]2 [D,C]-[D,G,C] | [D,A,D]2 B,C G,2 G,2 | D,2 D,2 G,2 E,2 | %11
 A,3 [D,A,] [D,A,]4 | [G,B,G]3 [G,DG] [G,B,]2 [G,CG]2 | [G,DG]2 [G,CG]2 [G,CG]2 [G,B,G]2 | %14
 [G,,G,]2 [B,,G,]2 [C,G,C]2 [A,,A,]2 | [D,G,]3 [D,F,] [G,,G,]4 |] %16
V:3
 x8 | x2[K:bass] x6 | x8 | x8 | x4[K:treble] x4 | x2[K:bass] x6 | x8 | x8 | z4 z2 .F,2 | %9
 z2 [D,D]2 z4 | x8 | x8 | x8 | x8 | x8 | x8 |] %16
V:4
 x8 | x8 | x8 | x8 | x8 | x8 | x8 | x8 | x8 | x8 | x8 | x8 | x8 | x8 | D2 z2 z4 | x8 |] %16

